X: 1
T: Ballinafad Fancy, The
M: 4/4
L: 1/8
R: reel
K: Amix
ABAG EGDE|G2BG DGBG|ABAG EGDG|B/c/d ed cAA2|
A2GA EGDE|~G3B d2BG|ABAG EGD2|B/c/d ed cA~A2|
EA~A2 EADA|BG~G2 Bcdz|eA~A2 e/f/g ga|gede cAA2|
EA~A2 EADA|BG~G2 Bcdz|e/f/g ga gbaf|gede cAA2|
